public/assets/llamafeed.svg

<svg fill="none" height="44" viewBox="0 0 44 44" width="44" xmlns="http://www.w3.org/2000/svg" xmlns:xlink="http://www.w3.org/1999/xlink"><linearGradient id="a" gradientUnits="userSpaceOnUse" x1="18.8743" x2="24.7618" y1=".521978" y2="43.4768"><stop offset="0" stop-color="#0131a9"/><stop offset=".39" stop-color="#161d77"/><stop offset="1" stop-color="#151c6c"/></linearGradient><linearGradient id="b" gradientUnits="userSpaceOnUse" x1="33.8364" x2="9.79972" y1="11.2822" y2="32.7173"><stop offset="0" stop-color="#7f0ee6"/><stop offset=".59" stop-color="#390fdb"/><stop offset="1" stop-color="#28158b"/></linearGradient><linearGradient id="c" gradientUnits="userSpaceOnUse" x1="33.1455" x2="13.7683" y1="15.1804" y2="31.9014"><stop offset="0" stop-color="#fdfcfc"/><stop offset=".59" stop-color="#f3f5fd"/><stop offset="1" stop-color="#c1c9fb"/></linearGradient><linearGradient id="d" gradientUnits="userSpaceOnUse" x1="29.3554" x2="14.2374" y1="22.2818" y2="36.0188"><stop offset="0" stop-color="#d8ccf8"/><stop offset="1" stop-color="#9899fa"/></linearGradient><clipPath id="e"><path d="m.000061.181641h43.6364v43.6364h-43.6364z"/></clipPath><g clip-path="url(#e)"><path d="m41.6823 17.2821-15.1467-15.14677c-2.6053-2.605326-6.8294-2.605326-9.4347 0l-15.14674 15.14677c-2.605332 2.6053-2.605331 6.8293 0 9.4347l15.14674 15.1467c2.6053 2.6053 6.8294 2.6053 9.4347 0l15.1467-15.1467c2.6053-2.6054 2.6053-6.8294 0-9.4347z" fill="url(#a)"/><path d="m40.4604 18.7218-15.3641-15.36413c-1.8104-1.81043-4.7457-1.81043-6.5561 0l-15.36417 15.36413c-1.81043 1.8104-1.81043 4.7457 0 6.5562l15.36417 15.3641c1.8104 1.8104 4.7457 1.8104 6.5561 0l15.3641-15.3641c1.8105-1.8105 1.8105-4.7458 0-6.5562z" fill="url(#b)"/><path d="m29.5076 34.0429c.4768.1162.888-.2775.8583-.7539-.0293-.4673-.4794-.811-.7514-1.1514-.3487-.4362-.4756-.7801-.5014-1.3433h-.0232c-.0385-.0243-.023-.0881-.0237-.1273-.0046-.3866.0123-.7753.0014-1.1614-.0023-.0828-.0406-.175-.0424-.2546-.0007-.035.0208-.3.0879-.2434.0037.0135-.0044.0399 0 .0464.0411.0588.4142.0764.4987.0692.1802-.0156.374-.1056.4237-.2952.1092-.4167-.3527-.6337-.5736-.9-.4242-.5122-.6927-1.8847-.8261-2.5638-.0209-.1063-.0188-.2367-.0562-.3476 1.0147.3014 1.7698-.3978.9751-1.3118-.4114-.4731-.7832-.6757-1.0328-1.3107-.0922-.2346-.123-.4634-.1504-.7078l.0471-.0253c.4244.0968.7005-.239.5773-.646-.0812-.2682-.3302-.3879-.4979-.5926-.2854-.3483-.3339-.8655-.4525-1.2878.2796-.007.6304-.0494.6481-.3986.0209-.4147-.4801-.5477-.762-.7173-.2613-.1573-.4212-.316-.6008-.5594-.2573-.3483-.4731-.7381-.5794-1.1609.1954-.2388.4513-.4393.6685-.6674.8254-.8673 1.605-2.1531 1.8953-3.3255.3901-1.5749-.0647-2.70516-1.6751-1.4429-.8451.6625-1.8301 1.9923-2.458 2.9019-.2251.3263-.4267.669-.6518.9955-.0747.0025-.2882-.5627-.3197-.6544-.3933-1.1372-.5632-2.3427-.9386-3.4933-.1441-.4414-.4671-1.47998-1.1259-1.16-.5184.25176-.3615 1.3164-.2923 1.7893.0777.5332.2104 1.0982.3905 1.6047.0907.2555.2167.4999.3021.7537-.7103-.2726-1.4345-.5249-2.1809-.6845-.6136-.1313-1.8851-.3847-2.216.3367-.1399.3046-.0365.7567.3128.8594l-.0406.0915c-.8414.174-1.6744.3854-2.5265.5074-.4991.0717-1.0483.1328-1.5505.1669-.6332.0429-1.5869-.0374-2.1364.1605-.7645.2757-.9836 1.1403-1.1764 1.8167-.1524.5341-.3866 1.2286.2518 1.5226.6332.2917 1.5943-.0229 2.0862-.4838.0824-.077.352-.4457.3987-.4599.138-.0415.2731.0527.2773.1963.0081.297-.4397.7555-.6669.9224-.6084.4469-1.4275.523-2.1559.4081.12.4903.4574.9217.8604 1.2162.8193.5988 1.9262.3923 2.8838.5271.9358.1318 2.5185.6307 3.24 1.25.1591-.0348.3413-.0234.4979-.0475.7762-.1191 1.6067-.2861 2.2847-.7084 1.7502-1.0899 2.1155-3.4823 2.2071-5.3806.01-.2042-.0093-.4116-.0007-.6158l.1555.4822c.3819 1.7918.5861 3.6933.5868 5.5276.0385.0239.0232.088.0237.1272.0018.1585-.0005.3176-.0005.4761v.1857c.0385.0241.0232.0879.0237.1271.007.5611.036 1.1792-.0237 1.7292-.0392.3629-.01.7332-.0222 1.1031-.0495 1.499-.2991 3.0796-.6574 4.5401-.6277 2.5582-1.3862 4.6667-1.4551 7.3742-.0144.5634-.0089 1.1527 0 1.7171.009.5761.0294 1.155.0698 1.7284.0309.4369.0947.8734.1158 1.3113 1.8134-.059 2.7074-.7855 3.9451-1.9605 1.3073-1.2412 2.5784-2.5184 3.8746-3.7709-.2341-.2861-.2995-.6193-.348-.9746-.0785.014-.0432-.1366-.0518-.1919-.0062-.0403-.0353-.0793-.0392-.1232-.0172-.1979.01-.3937.0216-.59.0424-.0181.0724.0183.0926.0234zm-9.5601-17.8438c-.0025.277-.1923.7239-.3935.9172-.4381.4212-1.3665.3446-1.5788-.2675-.1271-.174-.1278-.4177-.1664-.6226-.0399-.0617-.6109-.0065-.7262-.0278-.1198-.0223-.1604-.2091-.0755-.2947.0859-.0861.5869-.0513.7361-.0527h2.1579c.0156.0007.0311-.0014.0464-.0002zm6.5791-.9973c-.101.0926-.417.3865-.514.4374-.1543.0807-.355-.078-.3761-.2233-.011-.0756.4431-.9787.5176-1.1202.2643-.5026 1.0475-1.9097 1.535-2.1313.1204-.0546.2399-.0638.3494.0276.1383.1155.136.3722.123.5376-.064.811-1.0495 1.9355-1.6349 2.4722z" fill="url(#c)"/><path d="m16.784 38.9235c.2285.236.4636.4715.6922.6894 1.4432 1.3762 2.4162 2.0862 4.537 2.0173-.0213-.4379-.0849-.8743-.1158-1.3112-.0403-.5734-.0608-1.1524-.0698-1.7285v-1.7171c.0687-2.7074.8274-4.816 1.4551-7.374.3583-1.4604.608-3.0411.6574-4.5403.0123-.3699-.017-.7402.0223-1.1031v-2.0419c-.0386-.0242-.0233-.088-.0237-.1274-.0019-.1585.0004-.3177.0004-.4759-.0009-1.8343-.2048-3.7359-.5868-5.5274l-.1554-.4822c-.0089.2042.0106.4116.0007.6158-.0917 1.8983-.4569 4.2906-2.2072 5.3805-.678.4223-1.5085.5894-2.2849.7084-.1566.0239-.3388.0128-.498.0474.1912.1643.5138.7335.6143.9752.2376.5725.3011 1.2025.0394 1.7784-.1325.2919-.3743.5216-.4954.8272-.1279.3225-.1169.7172.307.75.0494.3851.0438.7908-.1274 1.1467-.2743.5701-1.0361 1.0495-.7901 1.7619.0529.1534.1453.1937.291.2471.0462.3309.0359.6581-.1365.9518-.2429.4142-.7996.6755-.8736 1.1799-.0418.2854.1805.7064.5219.6377.1037.62.2371 1.1813.0176 1.7929-.3288.9161-1.6136 1.7406-1.4776 2.7416.0371.2738.3487.4919.6221.4339.003.0346.0223.0726.0239.1054.0097.1807-.0265.5227-.045.7156-.0158.1638-.0469.3582-.0706.4854-.0141.0768-.068.1626-.0452.2459l.2007.1938z" fill="url(#d)"/><path d="m29.0899 30.7942c-.0385-.0242-.0232-.0882-.0237-.1274-.0049-.3866.0121-.7753.0014-1.1614-.0023-.0828-.0406-.1749-.0425-.2545-.0007-.0351.0207-.3003.088-.2434.0037.0134-.0044.0399 0 .0464-.0803-.0095-.0327.025-.0302.0647.0095.149.0065.2968.007.4458.0016.4095-.0012.8202 0 1.2298z" fill="#f5f9fe"/><path d="m29.5072 34.0424c-.0812-.0028-.0641-.0144-.0696.0568-.0204.2604.0113.5674.0464.8249-.0787.0139-.0432-.1364-.0518-.1919-.0062-.0404-.0352-.0793-.0392-.1232-.0171-.1977.01-.3935.0214-.5898.0427-.0181.0726.0183.0928.0232z" fill="#ebf0fd"/><path d="m29.1127 30.7943h-.0232c-.0012-.4096.0016-.8203 0-1.2298.0385.0241.0232.0879.0237.1273.0044.3641-.0167.7414-.0005 1.1025z" fill="#ebf0fd"/><path d="m28.0385 12.1919c.1383.1153.136.372.123.5376-.064.811-1.0495 1.9355-1.6349 2.4722-.101.0926-.417.3863-.514.4371-.1543.0808-.355-.0779-.3761-.223-.011-.0758.4432-.9787.5176-1.1202.2643-.5026 1.0472-1.91 1.535-2.1313.1204-.0548.2399-.0638.3494.0276z" fill="#3510e9"/><path d="m17.9748 16.8486c-.068-.1961-.0685-.4411-.1267-.6052-.0179-.0503-.0615-.0371-.0608-.0782.0011-.071.1039-.2912.1759-.2912h1.9607c.0037.0891-.0049.1794-.0007.2685.0014.0297.0241.0531.0239.0564-.0026.277-.1924.7242-.3935.9175-.4381.4211-1.3665.3443-1.5788-.2678z" fill="#2f0ec5"/><path d="m17.7427 15.8506c.6998-.0065 1.4642-.0339 2.158 0 .0153.0007.0311-.0012.0464 0v.3483c0-.003-.0225-.0267-.0239-.0564-.0042-.0891.0044-.1796.0007-.2685h-1.9607c-.0722 0-.1748.2202-.1759.2912-.0007.0411.0429.0279.0608.0782.0582.1641.0587.4089.1267.6052-.1272-.1738-.1279-.4174-.1664-.6223-.0399-.0618-.6112-.0065-.7263-.0279-.1197-.0223-.1603-.209-.0754-.2944.0858-.0864.5866-.0516.736-.0529z" fill="#2d11b4"/><path d="m19.9011 15.8506c-.6938-.0339-1.4581-.0065-2.1579 0z" fill="#fefefe"/><path d="m23.9622 23.8563v-1.8563c.0386.0241.0233.0879.0237.1274.007.5611.036 1.179-.0237 1.7289z" fill="#f3f6fe"/><path d="m21.8271 38.5906v-1.7171c-.0144.5634-.0089 1.1528 0 1.7171z" fill="#9a9bfb"/><path d="m23.9618 21.8142c-.0385-.0241-.0232-.0879-.0237-.1274-.0018-.1584.0005-.3176.0005-.4759.0385.0242.0232.088.0237.1274.0018.1585-.0005.3177-.0005.4759z" fill="#f3f6fe"/></g></svg>

<svg xmlns="http://www.w3.org/2000/svg" width="44" height="44" viewBox="0 0 44 44" fill="none">
  <g clip-path="url(#clip0_155_285)">
    <path d="M41.6823 17.2821L26.5356 2.13533C23.9303 -0.469996 19.7062 -0.469996 17.1009 2.13533L1.95416 17.2821C-0.651172 19.8874 -0.651171 24.1114 1.95416 26.7168L17.1009 41.8635C19.7062 44.4688 23.9303 44.4688 26.5356 41.8635L41.6823 26.7168C44.2876 24.1114 44.2876 19.8874 41.6823 17.2821Z" fill="url(#paint0_linear_155_285)"/>
    <path d="M40.4604 18.7218L25.0963 3.35767C23.2859 1.54724 20.3506 1.54724 18.5402 3.35767L3.17603 18.7218C1.3656 20.5322 1.3656 23.4675 3.17603 25.278L18.5402 40.6421C20.3506 42.4525 23.2859 42.4525 25.0963 40.6421L40.4604 25.278C42.2709 23.4675 42.2709 20.5322 40.4604 18.7218Z" fill="url(#paint1_linear_155_285)"/>
    <path d="M29.5076 34.0429C29.9844 34.1591 30.3956 33.7654 30.3659 33.289C30.3366 32.8217 29.8865 32.478 29.6145 32.1376C29.2658 31.7014 29.1389 31.3575 29.1131 30.7943H29.0899C29.0514 30.77 29.0669 30.7062 29.0662 30.667C29.0616 30.2804 29.0785 29.8917 29.0676 29.5056C29.0653 29.4228 29.027 29.3306 29.0252 29.251C29.0245 29.216 29.046 28.951 29.1131 29.0076C29.1168 29.0211 29.1087 29.0475 29.1131 29.054C29.1542 29.1128 29.5273 29.1304 29.6118 29.1232C29.792 29.1076 29.9858 29.0176 30.0355 28.828C30.1447 28.4113 29.6828 28.1943 29.4619 27.928C29.0377 27.4158 28.7692 26.0433 28.6358 25.3642C28.6149 25.2579 28.617 25.1275 28.5796 25.0166C29.5943 25.318 30.3494 24.6188 29.5547 23.7048C29.1433 23.2317 28.7715 23.0291 28.5219 22.3941C28.4297 22.1595 28.3989 21.9307 28.3715 21.6863L28.4186 21.661C28.843 21.7578 29.1191 21.422 28.9959 21.015C28.9147 20.7468 28.6657 20.6271 28.498 20.4224C28.2126 20.0741 28.1641 19.5569 28.0455 19.1346C28.3251 19.1276 28.6759 19.0852 28.6936 18.736C28.7145 18.3213 28.2135 18.1883 27.9316 18.0187C27.6703 17.8614 27.5104 17.7027 27.3308 17.4593C27.0735 17.111 26.8577 16.7212 26.7514 16.2984C26.9468 16.0596 27.2027 15.8591 27.4199 15.631C28.2453 14.7637 29.0249 13.4779 29.3152 12.3055C29.7053 10.7306 29.2505 9.60034 27.6401 10.8626C26.795 11.5251 25.81 12.8549 25.1821 13.7645C24.957 14.0908 24.7554 14.4335 24.5303 14.76C24.4556 14.7625 24.2421 14.1973 24.2106 14.1056C23.8173 12.9684 23.6474 11.7629 23.272 10.6123C23.1279 10.1709 22.8049 9.13232 22.1461 9.4523C21.6277 9.70406 21.7846 10.7687 21.8538 11.2416C21.9315 11.7748 22.0642 12.3398 22.2443 12.8463C22.335 13.1018 22.461 13.3462 22.5464 13.6C21.8361 13.3274 21.1119 13.0751 20.3655 12.9155C19.7519 12.7842 18.4804 12.5308 18.1495 13.2522C18.0096 13.5568 18.113 14.0089 18.4623 14.1116L18.4217 14.2031C17.5803 14.3771 16.7473 14.5885 15.8952 14.7105C15.3961 14.7822 14.8469 14.8433 14.3447 14.8774C13.7115 14.9203 12.7578 14.84 12.2083 15.0379C11.4438 15.3136 11.2247 16.1782 11.0319 16.8546C10.8795 17.3887 10.6453 18.0832 11.2837 18.3772C11.9169 18.6689 12.878 18.3543 13.3699 17.8934C13.4523 17.8164 13.7219 17.4477 13.7686 17.4335C13.9066 17.392 14.0417 17.4862 14.0459 17.6298C14.054 17.9268 13.6062 18.3853 13.379 18.5522C12.7706 18.9991 11.9515 19.0752 11.2231 18.9603C11.3431 19.4506 11.6805 19.882 12.0835 20.1765C12.9028 20.7753 14.0097 20.5688 14.9673 20.7036C15.9031 20.8354 17.4858 21.3343 18.2073 21.9536C18.3664 21.9188 18.5486 21.9302 18.7052 21.9061C19.4814 21.787 20.3119 21.62 20.9899 21.1977C22.7401 20.1078 23.1054 17.7154 23.197 15.8171C23.207 15.6129 23.1877 15.4055 23.1963 15.2013L23.3518 15.6835C23.7337 17.4753 23.9379 19.3768 23.9386 21.2111C23.9771 21.235 23.9618 21.2991 23.9623 21.3383C23.9641 21.4968 23.9618 21.6559 23.9618 21.8144V22.0001C24.0003 22.0242 23.985 22.088 23.9855 22.1272C23.9925 22.6883 24.0215 23.3064 23.9618 23.8564C23.9226 24.2193 23.9518 24.5896 23.9396 24.9595C23.8901 26.4585 23.6405 28.0391 23.2822 29.4996C22.6545 32.0578 21.896 34.1663 21.8271 36.8738C21.8127 37.4372 21.8182 38.0265 21.8271 38.5909C21.8361 39.167 21.8565 39.7459 21.8969 40.3193C21.9278 40.7562 21.9916 41.1927 22.0127 41.6306C23.8261 41.5716 24.7201 40.8451 25.9578 39.6701C27.2651 38.4289 28.5362 37.1517 29.8324 35.8992C29.5983 35.6131 29.5329 35.2799 29.4844 34.9246C29.4059 34.9386 29.4412 34.788 29.4326 34.7327C29.4264 34.6924 29.3973 34.6534 29.3934 34.6095C29.3762 34.4116 29.4034 34.2158 29.415 34.0195C29.4574 34.0014 29.4874 34.0378 29.5076 34.0429ZM19.9475 16.1991C19.945 16.4761 19.7552 16.923 19.554 17.1163C19.1159 17.5375 18.1875 17.4609 17.9752 16.8488C17.8481 16.6748 17.8474 16.4311 17.8088 16.2262C17.7689 16.1645 17.1979 16.2197 17.0826 16.1984C16.9628 16.1761 16.9222 15.9893 17.0071 15.9037C17.093 15.8176 17.594 15.8524 17.7432 15.851H19.9011C19.9167 15.8517 19.9322 15.8496 19.9475 15.8508V16.1991ZM26.5266 15.2018C26.4256 15.2944 26.1096 15.5883 26.0126 15.6392C25.8583 15.7199 25.6576 15.5612 25.6365 15.4159C25.6255 15.3403 26.0796 14.4372 26.1541 14.2957C26.4184 13.7931 27.2016 12.386 27.6891 12.1644C27.8095 12.1098 27.929 12.1006 28.0385 12.192C28.1768 12.3075 28.1745 12.5642 28.1615 12.7296C28.0975 13.5406 27.112 14.6651 26.5266 15.2018Z" fill="url(#paint2_linear_155_285)"/>
    <path d="M16.784 38.9235C17.0125 39.1595 17.2476 39.395 17.4762 39.6129C18.9194 40.9891 19.8924 41.6991 22.0132 41.6302C21.9919 41.1923 21.9283 40.7559 21.8974 40.319C21.8571 39.7456 21.8366 39.1666 21.8276 38.5905V36.8734C21.8963 34.166 22.655 32.0574 23.2827 29.4994C23.641 28.039 23.8907 26.4583 23.9401 24.9591C23.9524 24.5892 23.9231 24.2189 23.9624 23.856V21.8141C23.9238 21.7899 23.9391 21.7261 23.9387 21.6867C23.9368 21.5282 23.9391 21.369 23.9391 21.2108C23.9382 19.3765 23.7343 17.4749 23.3523 15.6834L23.1969 15.2012C23.188 15.4054 23.2075 15.6128 23.1976 15.817C23.1059 17.7153 22.7407 20.1076 20.9904 21.1975C20.3124 21.6198 19.4819 21.7869 18.7055 21.9059C18.5489 21.9298 18.3667 21.9187 18.2075 21.9533C18.3987 22.1176 18.7213 22.6868 18.8218 22.9285C19.0594 23.501 19.1229 24.131 18.8612 24.7069C18.7287 24.9988 18.4869 25.2285 18.3658 25.5341C18.2379 25.8566 18.2489 26.2513 18.6728 26.2841C18.7222 26.6692 18.7166 27.0749 18.5454 27.4308C18.2711 28.0009 17.5093 28.4803 17.7553 29.1927C17.8082 29.3461 17.9006 29.3864 18.0463 29.4398C18.0925 29.7707 18.0822 30.0979 17.9098 30.3916C17.6669 30.8058 17.1102 31.0671 17.0362 31.5715C16.9944 31.8569 17.2167 32.2779 17.5581 32.2092C17.6618 32.8292 17.7952 33.3905 17.5757 34.0021C17.2469 34.9182 15.9621 35.7427 16.0981 36.7437C16.1352 37.0175 16.4468 37.2356 16.7202 37.1776C16.7232 37.2122 16.7425 37.2502 16.7441 37.283C16.7538 37.4637 16.7176 37.8057 16.6991 37.9986C16.6833 38.1624 16.6522 38.3568 16.6285 38.484C16.6144 38.5608 16.5605 38.6466 16.5833 38.7299L16.784 38.9237V38.9235Z" fill="url(#paint3_linear_155_285)"/>
    <path d="M29.0899 30.7942C29.0514 30.77 29.0667 30.706 29.0662 30.6668C29.0613 30.2802 29.0783 29.8915 29.0676 29.5054C29.0653 29.4226 29.027 29.3305 29.0251 29.2509C29.0244 29.2158 29.0458 28.9506 29.1131 29.0075C29.1168 29.0209 29.1087 29.0474 29.1131 29.0539C29.0328 29.0444 29.0804 29.0789 29.0829 29.1186C29.0924 29.2676 29.0894 29.4154 29.0899 29.5644C29.0915 29.9739 29.0887 30.3846 29.0899 30.7942Z" fill="#F5F9FE"/>
    <path d="M29.5072 34.0424C29.426 34.0396 29.4431 34.028 29.4376 34.0992C29.4172 34.3596 29.4489 34.6666 29.484 34.9241C29.4053 34.938 29.4408 34.7877 29.4322 34.7322C29.426 34.6918 29.397 34.6529 29.393 34.609C29.3759 34.4113 29.403 34.2155 29.4144 34.0192C29.4571 34.0011 29.487 34.0375 29.5072 34.0424Z" fill="#EBF0FD"/>
    <path d="M29.1127 30.7943H29.0895C29.0883 30.3847 29.0911 29.974 29.0895 29.5645C29.128 29.5886 29.1127 29.6524 29.1132 29.6918C29.1176 30.0559 29.0965 30.4332 29.1127 30.7943Z" fill="#EBF0FD"/>
    <path d="M28.0385 12.1919C28.1768 12.3072 28.1745 12.5639 28.1615 12.7295C28.0975 13.5405 27.112 14.665 26.5266 15.2017C26.4256 15.2943 26.1096 15.588 26.0126 15.6388C25.8583 15.7196 25.6576 15.5609 25.6365 15.4158C25.6255 15.34 26.0797 14.4371 26.1541 14.2956C26.4184 13.793 27.2013 12.3856 27.6891 12.1643C27.8095 12.1095 27.929 12.1005 28.0385 12.1919Z" fill="#3510E9"/>
    <path d="M17.9748 16.8486C17.9068 16.6525 17.9063 16.4075 17.8481 16.2434C17.8302 16.1931 17.7866 16.2063 17.7873 16.1652C17.7884 16.0942 17.8912 15.874 17.9632 15.874H19.9239C19.9276 15.9631 19.919 16.0534 19.9232 16.1425C19.9246 16.1722 19.9473 16.1956 19.9471 16.1989C19.9445 16.4759 19.7547 16.9231 19.5536 17.1164C19.1155 17.5375 18.1871 17.4607 17.9748 16.8486Z" fill="#2F0EC5"/>
    <path d="M17.7427 15.8506C18.4425 15.8441 19.2069 15.8167 19.9007 15.8506C19.916 15.8513 19.9318 15.8494 19.9471 15.8506V16.1989C19.9471 16.1959 19.9246 16.1722 19.9232 16.1425C19.919 16.0534 19.9276 15.9629 19.9239 15.874H17.9632C17.891 15.874 17.7884 16.0942 17.7873 16.1652C17.7866 16.2063 17.8302 16.1931 17.8481 16.2434C17.9063 16.4075 17.9068 16.6523 17.9748 16.8486C17.8476 16.6748 17.8469 16.4312 17.8084 16.2263C17.7685 16.1645 17.1972 16.2198 17.0821 16.1984C16.9624 16.1761 16.9218 15.9894 17.0067 15.904C17.0925 15.8176 17.5933 15.8524 17.7427 15.8511V15.8506Z" fill="#2D11B4"/>
    <path d="M19.9011 15.8506C19.2073 15.8167 18.443 15.8441 17.7432 15.8506H19.9011Z" fill="#FEFEFE"/>
    <path d="M23.9622 23.8563V22C24.0008 22.0241 23.9855 22.0879 23.9859 22.1274C23.9929 22.6885 24.0219 23.3064 23.9622 23.8563Z" fill="#F3F6FE"/>
    <path d="M21.8271 38.5906V36.8735C21.8127 37.4369 21.8182 38.0263 21.8271 38.5906Z" fill="#9A9BFB"/>
    <path d="M23.9618 21.8142C23.9233 21.7901 23.9386 21.7263 23.9381 21.6868C23.9363 21.5284 23.9386 21.3692 23.9386 21.2109C23.9771 21.2351 23.9618 21.2989 23.9623 21.3383C23.9641 21.4968 23.9618 21.656 23.9618 21.8142Z" fill="#F3F6FE"/>
  </g>
  <defs>
    <linearGradient id="paint0_linear_155_285" x1="18.8743" y1="0.521978" x2="24.7618" y2="43.4768" gradientUnits="userSpaceOnUse">
      <stop stop-color="#0131A9"/>
      <stop offset="0.39" stop-color="#161D77"/>
      <stop offset="1" stop-color="#151C6C"/>
    </linearGradient>
    <linearGradient id="paint1_linear_155_285" x1="33.8364" y1="11.2822" x2="9.79972" y2="32.7173" gradientUnits="userSpaceOnUse">
      <stop stop-color="#7F0EE6"/>
      <stop offset="0.59" stop-color="#390FDB"/>
      <stop offset="1" stop-color="#28158B"/>
    </linearGradient>
    <linearGradient id="paint2_linear_155_285" x1="33.1455" y1="15.1804" x2="13.7683" y2="31.9014" gradientUnits="userSpaceOnUse">
      <stop stop-color="#FDFCFC"/>
      <stop offset="0.59" stop-color="#F3F5FD"/>
      <stop offset="1" stop-color="#C1C9FB"/>
    </linearGradient>
    <linearGradient id="paint3_linear_155_285" x1="29.3554" y1="22.2818" x2="14.2374" y2="36.0188" gradientUnits="userSpaceOnUse">
      <stop stop-color="#D8CCF8"/>
      <stop offset="1" stop-color="#9899FA"/>
    </linearGradient>
    <clipPath id="clip0_155_285">
      <rect width="43.6364" height="43.6364" fill="white" transform="translate(6.10352e-05 0.181641)"/>
    </clipPath>
  </defs>
</svg>
